**kern
*clefC3
*k[b-]
*M4/4
=1-
16B-
16A
8G
2F
8r
8E
=2
4E
8F
4E
4D-
8D-
=3
4D 4BB-
8.E
16D
4D 4BB-
4C
=4
2D
(16E-
8E-)
8F
8r
16r
=5
2F
16E
8r
4D
16D
=6
2D
4C
4D
=7
16C
8D#
4C
16D#
8C
4D#
16C
16BB-
=8
16AA
4AA
8GG
16FF
8r
4FF
8GG
=9
8FF
2r
4ff
8FF
=10
1FF
=11
*-